icon-themes/sifr_svg/sc/res/popup_unselect_current.svg

<svg viewBox="0 0 16 16" xmlns="http://www.w3.org/2000/svg"><path d="m1.9355469 1c-.5178898 0-.9355469.4176571-.9355469.9355469v12.1289061c0 .51789.4176571.935547.9355469.935547h12.1289061c.51789 0 .935547-.417657.935547-.935547v-12.1289061c0-.5178898-.417657-.9355469-.935547-.9355469zm.0644531 1h12v12h-12zm2 2v1.4140625l2.5859375 2.5859375-2.5859375 2.585938v1.414062h1.4140625l2.5859375-2.5859375 2.585938 2.5859375h1.414062v-1.414062l-2.5859375-2.585938 2.5859375-2.5859375v-1.4140625h-1.414062l-2.585938 2.5859375-2.5859375-2.5859375z" fill="#555753"/></svg>

<svg xmlns="http://www.w3.org/2000/svg" viewBox="0 0 16 16">
 <path
   style="fill:#555753"
   d="M 1.9355469 1 C 1.4176571 1 1 1.4176571 1 1.9355469 L 1 14.064453 C 1 14.582343 1.4176571 15 1.9355469 15 L 14.064453 15 C 14.582343 15 15 14.582343 15 14.064453 L 15 1.9355469 C 15 1.4176571 14.582343 1 14.064453 1 L 1.9355469 1 z M 2 2 L 14 2 L 14 14 L 2 14 L 2 2 z M 4 4 L 4 5.4140625 L 6.5859375 8 L 4 10.585938 L 4 12 L 5.4140625 12 L 8 9.4140625 L 10.585938 12 L 12 12 L 12 10.585938 L 9.4140625 8 L 12 5.4140625 L 12 4 L 10.585938 4 L 8 6.5859375 L 5.4140625 4 L 4 4 z "
   />
</svg>
